src/svg/it-pa.svg

<?xml version="1.0" encoding="utf-8"?>
<!-- Generator: Adobe Illustrator 25.4.1, SVG Export Plug-In . SVG Version: 6.00 Build 0)  -->
<svg version="1.1" id="Livello_1" xmlns="http://www.w3.org/2000/svg" xmlns:xlink="http://www.w3.org/1999/xlink" x="0px" y="0px"
	 viewBox="0 0 24 24" style="enable-background:new 0 0 24 24;" xml:space="preserve">
<g>
	<path d="M3,21h18v1H3V21z M3,20h18v-1H3V20z M22,9H2l10-7L22,9z M5.2,8h13.6L12,3.2L5.2,8z M6,18v-8H5v8H6z M10,18v-8H9v8H10z
		 M15,18v-8h-1v8H15z M19,18v-8h-1v8H19z"/>
</g>
</svg>

<svg xmlns="http://www.w3.org/2000/svg" width="24" height="24"
     viewBox="0 0 24 24">
  <title>PA</title>
  <g>
    <path
      d="M3,21H21v1H3Zm0-1H21V19H3ZM22,9H2L12,2ZM5.2,8H18.8L12,3.2ZM6,18V10H5v8Zm4,0V10H9v8Zm5,0V10H14v8Zm4,0V10H18v8Z"
      />
  </g>
  <g>
    <rect width="24" height="24" fill="none"/>
  </g>
</svg>
